rospo-icon-theme-classic-common/24x24/places/folder-brown-music.svg

<svg height="24" width="24" xmlns="http://www.w3.org/2000/svg"><rect height="12" opacity=".2" rx="1" width="20" x="2" y="9.5"/><path d="m2 17c0 .554.446 1 1 1h18c .554 0 1-.446 1-1v-11c0-.554-.446-1-1-1h-10v-1c0-.554-.446-1-1-1h-7c-.554 0-1 .446-1 1" fill="#957552"/><rect height="12" opacity=".2" rx="1" width="20" x="2" y="8.5"/><rect fill="#e4e4e4" height="8" rx="1" width="16" x="4" y="7"/><rect fill="#ae8e6c" height="12" rx="1" width="20" x="2" y="9"/><path d="m3 3c-.554 0-1 .446-1 1v .5c0-.554.446-1 1-1h7c .554 0 1 .446 1 1v-.5c0-.554-.446-1-1-1zm8 2v .5h10c .554 0 1 .446 1 1v-.5c0-.554-.446-1-1-1z" fill="#fff" opacity=".1"/><path d="m11 15.088c-.161-.057-.33-.087-.5-.088-.828 0-1.5.672-1.5 1.5 0 .829.672 1.5 1.5 1.5s1.5-.671 1.5-1.5v-3.5h3v2.088c-.161-.057-.33-.087-.5-.088-.828 0-1.5.672-1.5 1.5 0 .829.672 1.5 1.5 1.5s1.5-.671 1.5-1.5v-5c0-.277-.334-.5-.75-.5h-3.5c-.416 0-.75.223-.75.5" fill="#3d3226"/></svg>

<svg xmlns="http://www.w3.org/2000/svg" width="24" height="24" version="1">
 <rect style="opacity:0.2" width="20" height="12" x="2" y="9.5" rx="1" ry="1"/>
 <path style="fill:#957552" d="M 2,17 C 2,17.554 2.446,18 3,18 H 21 C 21.554,18 22,17.554 22,17 V 6 C 22,5.446 21.554,5 21,5 H 11 V 4 C 11,3.446 10.554,3 10,3 H 3 C 2.446,3 2,3.446 2,4"/>
 <rect style="opacity:0.2" width="20" height="12" x="2" y="8.5" rx="1" ry="1"/>
 <rect style="fill:#dcdcdc" width="16" height="8" x="4" y="7" rx="1" ry="1"/>
 <rect style="fill:#ae8e6c" width="20" height="12" x="2" y="9" rx="1" ry="1"/>
 <path style="opacity:0.1;fill:#ffffff" d="M 3,3 C 2.446,3 2,3.446 2,4 V 4.5 C 2,3.946 2.446,3.5 3,3.5 H 10 C 10.554,3.5 11,3.946 11,4.5 V 4 C 11,3.446 10.554,3 10,3 Z M 11,5 V 5.5 H 21 C 21.554,5.5 22,5.946 22,6.5 V 6 C 22,5.446 21.554,5 21,5 Z"/>
 <path style="fill:#3d3226" d="M 11,15.088 C 10.839,15.031 10.67,15.001 10.5,15 9.672,15 9,15.672 9,16.5 9,17.329 9.672,18 10.5,18 11.328,18 12,17.329 12,16.5 V 13 H 15 V 15.088 C 14.839,15.031 14.67,15.001 14.5,15 13.672,15 13,15.672 13,16.5 13,17.329 13.672,18 14.5,18 15.328,18 16,17.329 16,16.5 V 11.5 C 16,11.223 15.666,11 15.25,11 H 11.75 C 11.334,11 11,11.223 11,11.5"/>
</svg>
